img/heading-img/BackCover.svg

<svg width="900" height="600" xmlns="http://www.w3.org/2000/svg"><path fill="#FFF" d="M0 0h900v600H0z"/><path d="M0 378l129 66 128-10 129 5 128 4 129-15 128 2 129-14v185H0z" fill="#b4fe98"/><path d="M0 425l129 48 128-73 129 19 128-10 129 42 128-43 129 45v148H0z" fill="#9af9ab"/><path d="M0 503l129-60 128 59 129-7 128-8 129-17 128 29 129-12v114H0z" fill="#86f3bc"/><path d="M0 533l129-47 128 26 129 1 128 28 129-55 128 14 129 12v89H0z" fill="#7aecca"/><path d="M0 536l129 32 128-1 129-10 128 11 129-20 128 8 129-17v62H0z" fill="#77e4d4"/></svg>

<svg id="visual" viewBox="0 0 900 600" width="900" height="600" xmlns="http://www.w3.org/2000/svg" xmlns:xlink="http://www.w3.org/1999/xlink" version="1.1"><rect x="0" y="0" width="900" height="600" fill="#FFF"></rect><path d="M0 378L129 444L257 434L386 439L514 443L643 428L771 430L900 416L900 601L771 601L643 601L514 601L386 601L257 601L129 601L0 601Z" fill="#b4fe98"></path><path d="M0 425L129 473L257 400L386 419L514 409L643 451L771 408L900 453L900 601L771 601L643 601L514 601L386 601L257 601L129 601L0 601Z" fill="#9af9ab"></path><path d="M0 503L129 443L257 502L386 495L514 487L643 470L771 499L900 487L900 601L771 601L643 601L514 601L386 601L257 601L129 601L0 601Z" fill="#86f3bc"></path><path d="M0 533L129 486L257 512L386 513L514 541L643 486L771 500L900 512L900 601L771 601L643 601L514 601L386 601L257 601L129 601L0 601Z" fill="#7aecca"></path><path d="M0 536L129 568L257 567L386 557L514 568L643 548L771 556L900 539L900 601L771 601L643 601L514 601L386 601L257 601L129 601L0 601Z" fill="#77e4d4"></path></svg>
